X: 82
T:Belles of Tipperary, The
T:New Policeman, The
M:C|
L:1/8
R:Reel
K:D
dA~A2 DEFA|d2fe dBBA|~B3d ABde|fede fee2|!
"var."DF~F2 DEFA|d2fe dBBA|~B3d ABdB|AFEG FDD2:|]!
|:faab afdf|gfed cdef|g2gf gbag|faaf egfe|!
dB~B2 AF~F2|DFBF ABdf|afef dBAF|A2ag fdd2:|]!
